openmetadata-ui/src/main/resources/ui/src/assets/svg/edit-outline-primery.svg

<svg width="14" height="14" viewBox="0 0 14 14" fill="none" xmlns="http://www.w3.org/2000/svg">
<path d="M0.855358 13.5625C0.746043 13.5625 0.639233 13.5191 0.559959 13.4407C0.461493 13.3422 0.418101 13.2003 0.445638 13.0634L1.0356 10.1125C1.05229 10.0316 1.09067 9.95729 1.14992 9.89971L10.001 1.04776C10.8146 0.234081 12.1381 0.234081 12.9508 1.04776C13.3455 1.44166 13.5625 1.96575 13.5625 2.52322C13.5625 3.08069 13.3455 3.60478 12.9517 3.99869L4.10057 12.8506C4.04299 12.9091 3.96872 12.9483 3.88695 12.965L0.937134 13.5542C0.910432 13.56 0.882895 13.5625 0.855358 13.5625V13.5625ZM1.83001 10.4004L1.38774 12.6136L3.59989 12.1713L12.3609 3.40867C12.5979 3.17166 12.728 2.85787 12.728 2.52322C12.728 2.18857 12.5979 1.87478 12.3617 1.63778C11.8744 1.14957 11.0792 1.14957 10.5918 1.63778L1.83001 10.4004ZM3.806 12.5552H3.81435H3.806Z" fill="#1e61f0" stroke="#1e61f0" stroke-width="0.2"/>
<path d="M11.4762 5.30224C11.3694 5.30224 11.2626 5.26135 11.1808 5.1804L8.82101 2.81949C8.6583 2.65676 8.6583 2.39221 8.82101 2.22947C8.98373 2.06674 9.24825 2.06674 9.41097 2.22947L11.7708 4.59038C11.9335 4.75312 11.9335 5.01767 11.7708 5.1804C11.6899 5.26135 11.583 5.30224 11.4762 5.30224Z" fill="#1e61f0" stroke="#1e61f0" stroke-width="0.2"/>
</svg>

<svg xmlns="http://www.w3.org/2000/svg" width="14" height="14" fill="none"><path fill="#004AB3FF" stroke="#004AB3FF" stroke-width=".2" d="M.855 13.563a.418.418 0 0 1-.41-.5l.59-2.95A.41.41 0 0 1 1.15 9.9L10 1.048a2.087 2.087 0 0 1 2.95 2.95l-8.85 8.853a.415.415 0 0 1-.214.114l-2.95.59a.386.386 0 0 1-.082.008ZM1.83 10.4l-.442 2.214L3.6 12.17l8.76-8.762c.238-.237.368-.551.368-.886a1.252 1.252 0 0 0-2.136-.885L1.83 10.4Zm1.976 2.155h.008-.008Z"/><path fill="#004AB3FF" stroke="#004AB3FF" stroke-width=".2" d="M11.476 5.302a.42.42 0 0 1-.295-.122L8.82 2.82a.418.418 0 0 1 .59-.59l2.36 2.36a.418.418 0 0 1-.295.712Z"/></svg>
